X:33
T:Greenwood
K:Bbmaj clef=treble
M:4/4
M:6/8
L:1/8
P:(AB)4
P:A
[||:"Bb"b2b b2f | "Gm"g2 g d3 | "Eb"e'>fg g>ab | "F" c'2b a2 g
| "Bb" b2 b b2 f | "Gm"g2fd2b | "F"a2g f>ed | "Cm"e3 c3 :|
[||: "Gm"g2g b>ag | "F"f2d a2f | "Eb"g>ag b>ag | "D"d'2d d3 :|
P:B
[||: "F"F2d' F>e'd' | "Eb"ecc c2c' | "D"ddd d>e'f \
|1 "Gm"gGG G2 g \
:|2 "Gm"gGG G3 |]

